icons/doctor-case-two-color.svg

<?xml version="1.0" encoding="UTF-8"?><svg xmlns="http://www.w3.org/2000/svg" viewBox="0 0 50 50"><g id="uuid-a74026ee-4467-4ea8-b290-41e1f52202ab"><g><path d="M3.06,14.26v29.26H49.44V14.26H3.06Zm27.58,14.79h-3.73c-.28,0-.5,.22-.5,.5v3.73h-3.31v-3.73c0-.28-.22-.5-.5-.5h-3.73v-3.31h3.73c.28,0,.5-.22,.5-.5v-3.73h3.31v3.73c0,.28,.22,.5,.5,.5h3.73v3.31Z" fill="#ffcd00"/><g><path d="M48.44,11.76h-14.71v-1.82c0-1.91-1.55-3.46-3.46-3.46h-11.04c-1.91,0-3.46,1.55-3.46,3.46v1.82H1.06c-.28,0-.5,.22-.5,.5v30.26c0,.28,.22,.5,.5,.5H48.44c.28,0,.5-.22,.5-.5V12.26c0-.28-.22-.5-.5-.5Zm-.5,30.26H1.56V12.76H47.94v29.26ZM16.77,9.94c0-1.36,1.1-2.46,2.46-2.46h11.04c1.36,0,2.46,1.1,2.46,2.46v1.82h-15.96v-1.82Z"/><path d="M24.75,14.99c-6.84,0-12.4,5.56-12.4,12.4s5.56,12.4,12.4,12.4,12.4-5.56,12.4-12.4-5.56-12.4-12.4-12.4Zm0,23.81c-6.29,0-11.4-5.12-11.4-11.4s5.12-11.4,11.4-11.4,11.4,5.12,11.4,11.4-5.12,11.4-11.4,11.4Z"/><path d="M31.14,24.73h-3.73v-3.73c0-.28-.22-.5-.5-.5h-4.31c-.28,0-.5,.22-.5,.5v3.73h-3.73c-.28,0-.5,.22-.5,.5v4.31c0,.28,.22,.5,.5,.5h3.73v3.73c0,.28,.22,.5,.5,.5h4.31c.28,0,.5-.22,.5-.5v-3.73h3.73c.28,0,.5-.22,.5-.5v-4.31c0-.28-.22-.5-.5-.5Zm-.5,4.31h-3.73c-.28,0-.5,.22-.5,.5v3.73h-3.31v-3.73c0-.28-.22-.5-.5-.5h-3.73v-3.31h3.73c.28,0,.5-.22,.5-.5v-3.73h3.31v3.73c0,.28,.22,.5,.5,.5h3.73v3.31Z"/></g></g></g><g id="uuid-bae4a8ed-3af6-4788-b18c-b7af58bda7af"><text transform="translate(.36 55.09)" font-family="Roboto-Regular, Roboto" font-size="6"><tspan x="0" y="0">doc</tspan><tspan x="9.95" y="0" letter-spacing="0em">t</tspan><tspan x="11.85" y="0">or-case</tspan></text></g></svg>

<svg xmlns="http://www.w3.org/2000/svg" viewBox="0 0 50 50"><g id="b4a26a6a-a696-41b5-b479-ffdc3a8b696e" data-name="ICONS"><path d="M3.06,14.26V43.52H49.44V14.26ZM30.64,29.05H26.91a.5.5,0,0,0-.5.5v3.73H23.09V29.55a.5.5,0,0,0-.5-.5H18.86V25.73h3.73a.5.5,0,0,0,.5-.5V21.5h3.32v3.73a.5.5,0,0,0,.5.5h3.73Z" fill="#fdd600"/><path d="M48.44,11.76H33.73V9.94a3.46,3.46,0,0,0-3.46-3.46h-11a3.46,3.46,0,0,0-3.46,3.46v1.82H1.06a.5.5,0,0,0-.5.5V42.52a.5.5,0,0,0,.5.5H48.44a.5.5,0,0,0,.5-.5V12.26A.5.5,0,0,0,48.44,11.76ZM47.94,42H1.56V12.76H47.94ZM16.77,9.94a2.46,2.46,0,0,1,2.46-2.46h11a2.46,2.46,0,0,1,2.46,2.46v1.82h-16Z" fill="#231f20"/><path d="M24.75,15a12.4,12.4,0,1,0,12.4,12.4A12.41,12.41,0,0,0,24.75,15Zm0,23.8a11.4,11.4,0,1,1,11.4-11.4A11.41,11.41,0,0,1,24.75,38.79Z" fill="#231f20"/><path d="M31.14,24.73H27.41V21a.51.51,0,0,0-.5-.5H22.59a.51.51,0,0,0-.5.5v3.73H18.36a.51.51,0,0,0-.5.5v4.32a.51.51,0,0,0,.5.5h3.73v3.73a.51.51,0,0,0,.5.5h4.32a.51.51,0,0,0,.5-.5V30.05h3.73a.51.51,0,0,0,.5-.5V25.23A.51.51,0,0,0,31.14,24.73Zm-.5,4.32H26.91a.5.5,0,0,0-.5.5v3.73H23.09V29.55a.5.5,0,0,0-.5-.5H18.86V25.73h3.73a.5.5,0,0,0,.5-.5V21.5h3.32v3.73a.5.5,0,0,0,.5.5h3.73Z" fill="#231f20"/></g><g id="a2c132be-d1fb-4708-b1d6-731b862f0dd7" data-name="LABELS"><text transform="translate(0.36 55.09)" font-size="6" fill="#231f20" font-family="Roboto-Regular, Roboto">doc<tspan x="9.95" y="0" letter-spacing="-0.01em">t</tspan><tspan x="11.85" y="0">or-case</tspan></text></g></svg>
